public/assets/icons/vertical-dots.svg

<svg fill="none" height="20" viewBox="0 0 20 20" width="20" xmlns="http://www.w3.org/2000/svg"><path d="m10.0002 6.66659c.9166 0 1.6666-.75 1.6666-1.66667s-.75-1.66667-1.6666-1.66667c-.9167 0-1.6667.75-1.6667 1.66667s.75 1.66667 1.6667 1.66667zm0 1.66666c-.9167 0-1.6667.75-1.6667 1.66667 0 .91668.75 1.66668 1.6667 1.66668.9166 0 1.6666-.75 1.6666-1.66668 0-.91667-.75-1.66667-1.6666-1.66667zm0 5.00005c-.9167 0-1.6667.75-1.6667 1.6666 0 .9167.75 1.6667 1.6667 1.6667.9166 0 1.6666-.75 1.6666-1.6667 0-.9166-.75-1.6666-1.6666-1.6666z" fill="#4a5568"/></svg>

<svg xmlns="http://www.w3.org/2000/svg" width="20" height="20" viewBox="0 0 20 20" fill="none">
<path d="M10.0002 6.66659C10.9168 6.66659 11.6668 5.91659 11.6668 4.99992C11.6668 4.08325 10.9168 3.33325 10.0002 3.33325C9.0835 3.33325 8.3335 4.08325 8.3335 4.99992C8.3335 5.91659 9.0835 6.66659 10.0002 6.66659ZM10.0002 8.33325C9.0835 8.33325 8.3335 9.08325 8.3335 9.99992C8.3335 10.9166 9.0835 11.6666 10.0002 11.6666C10.9168 11.6666 11.6668 10.9166 11.6668 9.99992C11.6668 9.08325 10.9168 8.33325 10.0002 8.33325ZM10.0002 13.3333C9.0835 13.3333 8.3335 14.0833 8.3335 14.9999C8.3335 15.9166 9.0835 16.6666 10.0002 16.6666C10.9168 16.6666 11.6668 15.9166 11.6668 14.9999C11.6668 14.0833 10.9168 13.3333 10.0002 13.3333Z" fill="#4A5568"/>
</svg>
